artwork/resources/intui/icons/shell/tool-windows/database-inspector@20x20_dark.svg

<svg width="20" height="20" viewBox="0 0 20 20" fill="none" xmlns="http://www.w3.org/2000/svg">
<g clip-path="url(#clip0_3575_1540)">
<path d="M14.5 15.5L17 18" stroke="#CED0D6" stroke-width="1.5" stroke-linecap="round"/>
<circle cx="12" cy="13" r="3.25" stroke="#CED0D6" stroke-width="1.5"/>
<path fill-rule="evenodd" clip-rule="evenodd" d="M4.28337 4.13253C4.03455 4.35744 4 4.5101 4 4.58065C4 4.65119 4.03455 4.80385 4.28337 5.02876C4.53216 5.25364 4.93423 5.49055 5.49486 5.70489C6.61099 6.1316 8.20358 6.41129 10 6.41129C11.7964 6.41129 13.389 6.1316 14.5051 5.70489C15.0658 5.49055 15.4678 5.25364 15.7166 5.02876C15.9654 4.80385 16 4.65119 16 4.58065C16 4.5101 15.9654 4.35744 15.7166 4.13253C15.4678 3.90765 15.0658 3.67074 14.5051 3.4564C13.389 3.02969 11.7964 2.75 10 2.75C8.20358 2.75 6.61099 3.02969 5.49486 3.4564C4.93423 3.67074 4.53216 3.90765 4.28337 4.13253ZM2.5 4.32263V4.58065V8.1936V11.8064V15.4193V15.5226H2.50298C2.53745 16.118 2.86674 16.6089 3.27753 16.9802C3.71187 17.3728 4.29832 17.692 4.9592 17.9447C6.28609 18.4519 8.0685 18.75 10 18.75C10.6904 18.75 11.3617 18.7119 12 18.6398V18.6C10.5717 18.6 9.27051 18.0555 8.29274 17.1628C7.20131 17.0487 6.24148 16.829 5.49486 16.5436C4.93423 16.3292 4.53216 16.0923 4.28337 15.8674C4.03455 15.6425 4 15.4899 4 15.4193V13.8829C4.29236 14.0511 4.61572 14.2004 4.9592 14.3317C5.49817 14.5378 6.1123 14.7093 6.78105 14.8404C6.61302 14.3363 6.51599 13.7997 6.50181 13.2425C6.13479 13.1511 5.79733 13.0463 5.49486 12.9306C4.93423 12.7163 4.53216 12.4794 4.28337 12.2545C4.03455 12.0296 4 11.8769 4 11.8064V10.2701C4.29236 10.4383 4.61572 10.5876 4.9592 10.7189C5.50967 10.9294 6.13854 11.1038 6.82393 11.2359C7.00483 10.7337 7.25676 10.2653 7.56759 9.84302C6.77465 9.71935 6.07123 9.5382 5.49486 9.31785C4.93423 9.10351 4.53216 8.8666 4.28337 8.64172C4.03455 8.41681 4 8.26415 4 8.1936V6.65717C4.29236 6.82539 4.61572 6.97467 4.9592 7.10598C6.28609 7.61328 8.0685 7.91129 10 7.91129C10.058 7.91129 10.1159 7.91102 10.1736 7.91049C10.7451 7.70937 11.3598 7.59998 12 7.59998C12.3066 7.59998 12.6073 7.62506 12.9002 7.67329C13.6932 7.53654 14.4173 7.34437 15.0408 7.10598C15.3843 6.97467 15.7076 6.82539 16 6.65717V8.1936C16 8.26415 15.9654 8.41681 15.7166 8.64172C15.6468 8.70484 15.5649 8.76891 15.4708 8.83317C16.6851 9.82211 17.4691 11.319 17.4991 13H17.5V11.8064V8.1936V4.58065V4.32263H17.4812C17.404 3.7965 17.0971 3.3584 16.7225 3.01975C16.2881 2.62715 15.7017 2.30797 15.0408 2.05531C13.7139 1.54801 11.9315 1.25 10 1.25C8.0685 1.25 6.28609 1.54801 4.9592 2.05531C4.29832 2.30797 3.71187 2.62715 3.27753 3.01975C2.90287 3.3584 2.59602 3.7965 2.51878 4.32263H2.5Z" fill="#CED0D6"/>
</g>
<defs>
<clipPath id="clip0_3575_1540">
<rect width="20" height="20" fill="white"/>
</clipPath>
</defs>
</svg>

<svg width="20" height="20" viewBox="0 0 20 20" fill="none" xmlns="http://www.w3.org/2000/svg"><g clip-path="url(#clip0_3575_1540)"><path d="M14.5 15.5L17 18" stroke="#CED0D6" stroke-width="1.5" stroke-linecap="round"/><circle cx="12" cy="13" r="3.25" stroke="#CED0D6" stroke-width="1.5"/><path fill-rule="evenodd" clip-rule="evenodd" d="M4.283 4.133C4.035 4.357 4 4.51 4 4.58c0 .07.035.223.283.448.25.225.651.462 1.212.676 1.116.427 2.709.706 4.505.706 1.796 0 3.389-.28 4.505-.706.56-.214.963-.451 1.212-.676.248-.225.283-.378.283-.448s-.035-.224-.283-.448c-.25-.225-.651-.462-1.212-.677C13.39 3.03 11.796 2.75 10 2.75c-1.796 0-3.389.28-4.505.706-.56.215-.963.452-1.212.677zm-1.783.19v11.2h.003c.034.595.364 1.086.775 1.457.434.393 1.02.712 1.681.965 1.327.507 3.11.805 5.041.805.69 0 1.362-.038 2-.11v-.04a5.48 5.48 0 0 1-3.707-1.437c-1.092-.114-2.052-.334-2.798-.62-.56-.214-.963-.45-1.212-.676C4.035 15.642 4 15.49 4 15.42v-1.536c.292.168.616.317.96.449.538.206 1.152.377 1.821.508a5.487 5.487 0 0 1-.28-1.598 8.75 8.75 0 0 1-1.006-.311c-.56-.215-.963-.452-1.212-.676-.248-.225-.283-.378-.283-.449V10.27c.292.168.616.318.96.449.55.21 1.179.385 1.864.517.18-.502.433-.97.744-1.393a10.357 10.357 0 0 1-2.073-.525c-.56-.214-.963-.451-1.212-.676C4.035 8.417 4 8.264 4 8.194V6.657c.292.168.616.318.96.449 1.326.507 3.109.805 5.04.805h.174a5.492 5.492 0 0 1 2.726-.238 11.54 11.54 0 0 0 2.14-.567c.344-.131.668-.28.96-.449v1.537c0 .07-.035.223-.283.448-.07.063-.152.127-.246.191A5.49 5.49 0 0 1 17.499 13h.001V4.323h-.019c-.077-.527-.384-.965-.759-1.303-.434-.393-1.02-.712-1.681-.965-1.327-.507-3.11-.805-5.041-.805-1.931 0-3.714.298-5.04.805-.662.253-1.248.572-1.682.965-.375.338-.682.776-.76 1.303H2.5z" fill="#CED0D6"/></g><defs><clipPath id="clip0_3575_1540"><path fill="#fff" d="M0 0h20v20H0z"/></clipPath></defs></svg>
